X: 1
T:AMERICA THE BEAUTIFUL  "AMERICAB"
M:C
L:1/8
Q:80
C:arr. P.T.McKeown
S:MARCH
K:HP
{g}e2[|
{A}e3{g}c{GdG}c2{g}e2|
{A}e3{g}B{GdG}B2c2|  !
{g}d2e2{g}f2g2|
{aef}e4{A}e2{g}e2|
{A}e3{g}c{GdG}c2{g}e2|  !
{A}e3{g}B{GdG}B2c2|
{g}d2e2{g}f2B2|
{g}e4{A}e2A2|  !
{g}f3{e}f{gef}e2d2|
{gdc}d3c{GdG}c2d2|
{g}e2c2{g}B2{G}A2|  !
{Gdc}d6{g}d2|
{gdc}d3B{GdG}B2{g}d2|
{gdc}d3{g}A{GAG}A2{g}A2|  !
{g}B2d2{g}A2e2|
{Gdc}d4{gcG}d2|]
